icons/flutter.svg

<svg width="16" height="16" viewBox="0 0 16 16" fill="none" xmlns="http://www.w3.org/2000/svg">
<path d="M8.74476 2L2.80625 7.93851L4.6437 9.77595L12.4197 2H8.74476Z" fill="#2CB7F6"/>
<path d="M8.70285 7.47507L5.524 10.6539L7.36843 12.5263L9.20355 10.6935L12.4197 7.47507H8.70285Z" fill="#2CB7F6"/>
<path d="M7.36843 12.5263L8.76573 13.9236H12.4197L9.20355 10.6935L7.36843 12.5263Z" fill="#086EC5"/>
<path d="M5.50304 10.6749L7.34048 8.83744L9.20354 10.6935L7.36843 12.5263L5.50304 10.6749Z" fill="#00B5F8"/>
</svg>

<svg xmlns="http://www.w3.org/2000/svg" width="16" height="16" fill="none"><path fill="#2CB7F6" d="M8.745 2 2.806 7.939l1.838 1.837L12.42 2H8.745ZM8.703 7.475l-3.179 3.179 1.844 1.872 1.836-1.832 3.216-3.219H8.703Z"/><path fill="#086EC5" d="m7.368 12.526 1.398 1.398h3.654l-3.216-3.23-1.836 1.832Z"/><path fill="#00B5F8" d="M5.503 10.675 7.34 8.837l1.864 1.857-1.836 1.832-1.865-1.851Z"/></svg>
